X:1
T:Title
%%score [ 1 2 3 4 ]
L:1/8
Q:1/4=120
M:4/4
K:F
V:1 treble nm="Soprano I"
V:2 treble nm="Soprano II"
V:3 treble nm="Alto I"
V:4 treble nm="Alto II"
V:1
 c8 | d8 | c6 c2 | c8 | A2 c3 c c2 | d2 e2 (f3 e | d2) (c4 =B2) | c4 A2 A2 | (B4 A3 G/F/ | %9
w: O|_|Re- gem|coe-|li, cu- i ta-|li- a fa- *|* mu- *|lan- tur, ob-|se- * * *|
 G2) G2 A2 c2- | c2 d2 c3 c | c2 B2 A4 | z4 z2 f2- | f2 d2 f3 f | f2 g2 c2 (f2- | fe/d/ e2) f2 d2 | %16
w: * qui- a, sta-|* bu- lo pro-|po- ni- tur,|sta-|* bu- lo pro-|po- ni- tur, pro-|* * * * po- ni-|
 e8 | z2 f2 f2 f2 | d2 (f4 e2 | f4) c4 | z2 d2 f3 e | (d2 c4 BA | B4) c4- | c4 z4 | z4 z2 c2 | %25
w: tur,|qui con- ti-|net mun- *|* dum,|qui con- ti-|net mun- * *|* dum,|_|qui|
 c2 c2 d4 | (d4 c4) | c8- | c4 z2 f2- | f2 e2 f3 f | e2 d2 ^c2 e2- | e2 f2 e2 e2 | d4 z4 | %33
w: con- ti- net|mun- *|dum,|_ Ja-|* cet in prae-|se- pi- o, in|_ prae- se- pi-|o,|
 z2 A4 G2 | A3 A G2 F2- | F2 E2 F4 | z2 f4 e2 | d2 e2 f4 | d2 c4 c2 | d2 c2 d4 ||[M:3/2] c8 A4 | %41
w: ja- cet|in prae- se- *|* pi- o,|et in|coe- lis re-|gnat, et in|coe- lis re-|gnat. Al-|
 B8 B4 | A8 G4 | F8 E4 | F8 c4 | d8 d4 | c8 B4 | A4 G8 | A8 c4 | d8 d4 | c8 c4 | (A4 B4) G4 || %52
w: le- lu-|ja, al-|le- lu-|ja, al-|le- lu-|ja, al-|le- lu-|ja, al-|le- lu-|ja, al-|le- * lu-|
[M:2/2] A4 z4 | z2 f3 (efd | edcB AG) A2 | D2 d2 c2 =B2 | c4 A2 c2- | c (BcA BAAG/F/ | %58
w: ja.|al- le- * *|* * * * * * lu-|ja, al- le- *|lu- ja, al-|* le- * * * * * * *|
 G3 F/G/ A2) F2 | G2 c4 =B2 | c8 | !fermata!c8 ||"^\"Natus est nobis\"" z8 | z8 | z8 | %65
w: * * * * lu-|ja, al- le-|lu-|ja.||||
 z2 c2 d2 e2 | f4 e2 c2- | cc c2 d3 d | d2 f2 (edcB | A2 =B2 c4- | c4) c4- | c4 z4 | z2 f2 f4 | %73
w: Na- tus est|no- bis ho-|* di- e ho- di-|e Sal- va- * * *||* tor|_|qui est|
 e2 c2 d4- | d2 d2 c4 | z2 (c4 BA | G3 ABc d2- | d2) =B2 c4 | z8 | z2 c2 d2 e2 | f6 e2 | d4 c4 | %82
w: Chri- stus Do-|* mi- nus,|Do- * *||* mi- nus,||in ci- vi-|ta- te|Da- vid,|
 z2 c2 d2 e2 | f6 e2 | (d2 c4 =B2) | c4 (F2 _B2- | B2 A2 G4- | G4) A4 | z4 z2 c2- | c2 =B2 c3 c | %90
w: in ci- vi-|ta- te|Da- * *|vid, Da- *||* vid,|Ja-|* cet in prae-|
 (B2 A3) G (G2 | A2) =c3 A d2- | d2 ^c2 (d3 =c/B/ | A8) | z2 d4 ^c2 | d3 c B2 G2 | A2 c4 c2 | %97
w: se- * pi- o,|_ in prae- se-|* pi- o, _ _|_|ja- cet|in prae- se- pi-|o, et in|
 d2 c2 B4 | c4 z4 | f3 f f2 f2 | f8 ||[M:3/2] f8 c4 | d8 d4 | c8 B4 | A4 G8 | A8 A4 | B8 B4 | %107
w: coe- lis re-|gnat,|et in coe- lis|re-|gnat. Al-|le- lu-|ja, al-|le- lu-|ja, al-|le- lu-|
 A8 z8 | z12 | z8 f4 | f8 f4 | f8 e4 | d8 c4 ||[M:2/2] c4 z4 | z2 A3 (GAF | G2) A2 F2 f2- | %116
w: ja,||al-|le- lu-|ja, al-|le- lu-|ja.|Al- le- * *|* lu- ja, al-|
 f (efd e2 f2- | f2) e2 f4 | z8 | z2 c4 (=B2 | c2 G2 A2) B2 | G4 z2 c2- | c2 (BA B2 c2) | %123
w: * le- * * * *|* lu- ja,||al- le-|* * * lu-|ja, al-|* le- * * *|
 (d3 c B4- | B2 AG) !fermata!A4 |] %125
w: lu- * *|* * * ja.|
V:2
 (A8 | B8) | G4 A4 | G8 | F2 A3 A A2 | =B2 c2 (d3 e | f2) e2 f4 | e2 e2 (fedc | d2) d2 c4- | %9
w: O|_|Re- gem|coe-|li, cu- i ta-|li- a fa- *|* mu- lan-|tur, ob- se- * * *|* qui- a,|
 c4 z2 A2- | A2 B2 A3 A | A2 G2 F2 c2- | c2 d2 c3 c | c2 B2 A4 | z2 c4 =B2 | c2 G2 A2 =B2 | %16
w: _ sta-|* bu- lo pro-|po- ni- tur, sta-|* bu- lo pro-|po- ni- tur,|sta- bu-|lo pro- po- ni-|
 c4 z2 c2 | c2 c2 d4 | z2 B2 B2 B2 | c4 (f3 e | dc d2) c4 | z4 z2 F2 | F2 F2 G4 | (A3 GAB c2- | %24
w: tur, qui|con- ti- net|qui con- ti-|net mun- *|* * * dum,|qui|con- ti- net|mun- * * * *|
 c2 =B2 c3 _B/A/ | G3 A B4- | B2 A2 G4) | A4 z4 | z2 c4 =B2 | c3 c B2 (A2- | AG G2) A2 c2- | %31
w: |||dum,|Ja- cet|in prae- se- pi-|* * * o, in|
 cA d4 ^c2 | (d3 c/B/ A4- | A4) z2 d2- | d2 ^c2 d3 =c | B2 G2 A2 c2- | c2 c2 d2 c2 | B4 c4 | %38
w: _ prae- se- pi-|o, _ _ _|_ ja-|* cet in prae-|se- pi- o, et|_ in coe- lis|re- gnat,|
 z4 f3 f | f2 f2 f4 ||[M:3/2] f8 c4 | d8 d4 | c8 B4 | A4 G8 | A8 A4 | B8 B4 | A8 z4 | z12 | z8 f4 | %49
w: et in|coe- lis re-|gnat. Al-|le- lu-|ja, al-|le- lu-|ja, al-|le- lu-|ja,||al-|
 f8 f4 | f8 e4 | d8 c4 ||[M:2/2] c4 z4 | z2 A3 (GAF | G2) A2 F2 (f2- | f efd e2 f2- | f2) e2 f4 | %57
w: le- lu-|ja, al-|le- lu-|ja.|al- le- * *|* lu- ja, al-|* le- * * * *|* lu- ja,|
 z8 | z2 c4 (=B2 | c2 G2 A2 GF | G4) A4 | !fermata!G8 || c4 B2 G2 | (A3 B c2 d2- | dccB/A/ B4) | %65
w: |al- le-||* lu-|ja.|Na- tus est|no- * * *||
 A2 (FGAB c2- | c2 =B2) c4 | z4 f3 f | f2 d2 (cBAG | F4 G2 A2 | G4) A4 | z2 c2 c4 | A2 F2 (A3 B | %73
w: bis no- * * * *|* * bis|ho- di-|e Sal- va- * * *||* tor|qui est|Chri- stus Do- *|
 c3 B/A/ G2) B2 | F2 f2 f4 | e2 c2 (e4- | e2 dc d3 e | f6 e2 | d2 c2 B2) B2 | A4 z2 G2 | %80
w: * * * * mi-|nus, qui est|Chri- stus Do-|||* * * mi-|nus, in|
 A2 =B2 c4 | F2 (f4 e2 | f3 e d2 c2- | c2 =B2) c3 c | d2 e2 f4- | f2 e2 d4- | d4 c4- | c8- | %88
w: ci- vi- ta-|te Da- *||* * vid, in|ci- vi- ta-|* te Da-|* vid,|_|
 c4 z4 | z2 f4 e2 | f2 f e2 d2 x | ^c2 e4 f2 | e2 e2 d4 | z4 z2 A2- | A2 G2 A3 A | (G2 F4) E2 | %96
w: |Ja- cet|in prae- se- pi-|o, in prae-|se- pi- o,|ja-|* cet in prae-|se- * pi-|
 F4 z2 f2- | f2 f2 d2 e2 | f4 d2 c2- | c2 c2 d2 c2 | d8 ||[M:3/2] c8 A4 | B8 B4 | A8 G4 | F8 E4 | %105
w: o, et|_ in coe- lis|re- gnat, et|_ in coe- lis|re-|gnat. Al-|le- lu-|ja, al-|le- lu-|
 F8 c4 | d8 d4 | c8 B4 x4 | A4 G8 | A8 c4 | d8 d4 | c8 c4 | (A4 B4) G4 ||[M:2/2] A4 z4 | %114
w: ja, al-|le- lu-|ja, al-|le- lu-|ja, al-|le- lu-|ja, al-|le- * lu-|ja.|
 z2 f3 (efd | edcB AG) A2 | D2 d2 c2 =B2 | c4 A2 c2- | c (BcA BAAG/F/ | G3 F/G/ A2) F2 | G2 c4 d2 | %121
w: Al- le- * *|* * * * * * lu-|ja, al- le- *|lu- ja, al-|* le- * * * * * * *|* * * * lu-|ja, al- le-|
 (c3 B/A/ G4) | A2 d4 c2 | (dABc d4) | !fermata!c8 |] %125
w: lu- * * *|ja, al- le-|lu- * * * *|ja.|
V:3
 F8- | F8 | E4 F2 (F2- | F2 ED E4) | F2 F3 F A2 | F2 G2 B4- | B2 G2 F4 | G2 (A3 GFE | %8
w: O|_|Re- gem coe-||li, cu- i ta-|li- a fa-|* mu- lan-|tur, ob- * * *|
 F2) (G3 F F2- | F2) E2 F4 | z8 | z4 z2 A2- | A2 B2 A3 A | A2 G2 F2 A2- | A2 G2 A2 F2 | %15
w: * se- * *|* qui- a,||sta-|* bu- lo pro-|po- ni- tur, sta-|* bu- lo pro-|
 (G3 C F2) G2 | C2 G2 G2 G2 | A4 z2 F2 | F2 F2 G4 | (A3 GAB c2- | c2 =B2 c3 _B | A2 G2 F3 E | %22
w: po- * * ni-|tur, qui con- ti-|net qui|con- ti- net|mun- * * * *|||
 DC F4 E2) | F4 z2 F2 | E2 D2 C2 (E2- | EFGE F2 G2- | GF F4 E2) | F2 A4 G2 | A3 A G2 F2 | G8 | %30
w: |dum, qui|con- ti- net mun-|||dum, Ja- cet|in prae- se- pi-|o,|
 z4 z2 A2- | A2 F2 G2 A2 | D2 F4 E2 | F3 F E2 D2 | E4 z4 | z4 z2 A2- | A2 A2 B2 A2 | (G2 B4 A2) | %38
w: in|_ prae- se- pi-|o, ja- cet|in prae- se- pi-|o,|et|_ in coe- lis|re- * *|
 B2 A4 A2 | B2 A2 B4 ||[M:3/2] A8 z4 | z12 | z12 | z12 | z8 F4 | B,4 (B,2 C2 D2 E2) | F4 A4 G4 | %47
w: gnat, et in|coe- lis re-|gnat.||||Al-|le- lu- * * *|ja, al- le-|
 F8 (E4 | F8) A4 | B8 B4 | A8 G4 | F8 E4 ||[M:2/2] F2 A3 (GAF | G2) A2 F4 | z2 C2 (DEFG | %55
w: lu- ja,|_ al-|le- lu-|ja, al-|le- lu-|ja. al- le- * *|* lu- ja,|al- le- * * *|
 A3 B G2 F2) | G4 F2 A2- | A (GAF G2 F2- | F2 E2) (F2 D2 | C4) z2 F2- | F2 E2 (F4- | %61
w: |lu- ja, al-|* le- * * * *|* lu- ja, _|_ al-|* le- lu-|
 F2 ED) !fermata!E4 || C4 D2 E2 | (F3 G A2 B2- | BA A4 G2) | A2 A2 F2 G2 | F4 G2 A2- | AA A2 B4- | %68
w: * * * ja.|Na- tus est|no- * * *||bis na- tus est|no- bis ho-|* di- e ho-|
 B2 B2 G2 (A2- | AG F2) (E2 F2- | F2 E2) F2 A2 | A4 G2 E2 | (F2 DE FGAF | G2) A2 B2 (B,C | %74
w: * di- e Sal-|* * * va- *|* * tor qui|est Chri- stus|Do- * * * * * *|* mi- nus, Do- *|
 DEFG AGAB | c2) A2 G4 | z2 B2 B4 | A2 F2 (G3 A | B2 A4) G2 | A4 z4 | z2 F2 G2 A2 | B4 G4 | %82
w: |* mi- nus,|qui est|Chri- stus Do- *|* * mi-|nus,|in ci- vi-|ta- te|
 (A3 G F2 E2 | A2 GF G3 A | B2 c2) F2 F2 | G2 A2 B3 A | (G2 F4 ED | E4) F2 A2- | A2 G2 A3 A | %89
w: Da- * * *||* * vid, in|ci- vi- ta- te|Da- * * *|* vid, Ja-|* cet in prae-|
 G2 F2 G4 | z8 | z2 A4 F2 | G2 A2 D2 F2- | F2 E2 F3 F | E2 D2 E4 | z8 | z2 A4 A2 | B2 A2 (G2 B2- | %98
w: se- pi- o,||in prae-|se- pi- o, ja-|* cet in prae-|se- pi- o,||et in|coe- lis re- *|
 B2 A2) B2 A2- | A2 A2 B2 A2 | B8 ||[M:3/2] c8 z4 | z12 | z12 | z12 | z8 F4 | B,4 (B,2 C2 D2 E2) | %107
w: * * gnat, et|_ in coe- lis|re-|gnat.||||al-|le- lu- * * *|
 F4 (A4 G4) x4 | F8 E4 | F8 A4 | B8 B4 | A8 G4 | F8 E4 ||[M:2/2] F2 A3 (GAF | G2) A2 F4 | %115
w: ja, al- *|le- lu-|ja, al-|le- lu-|ja, al-|le- lu-|ja. Al- le- * *|* lu- ja,|
 z2 C2 (DEFG | A3 B G2 F2) | G4 F2 A2- | A (GAF G2 F2- | F2 E2 F2) D2 | C4 z2 F2- | F2 (ED E2) E2 | %122
w: al- le- * * *||lu- ja, al-|* le- * * * *|* * * lu-|ja, al-|* le- * * lu-|
 F8- | F8- | !fermata!F8 |] %125
w: ja.|_||
V:4
 (F,8 | B,8) | C4 F,4 | C8 | F,2 F,3 F, F2 | D2 C2 B,4- | B,2 C2 D4 | C4 D4 | B,4 C4- | C2 C2 F,4 | %10
w: O|_|Re- gem|coe-|li, cu- i ta-|li- a fa-|* mu- lan-|tur, ob-|se- *|* qui- a,|
 z8 | z4 z2 F2- | F2 D2 F3 F | F2 G2 D2 (F2- | FD E2) F2 D2 | C4 z4 | z2 C2 C2 C2 | %17
w: |sta-|* bu- lo pro-|po- ni- tur, pro-|* * * po- ni-|tur,|qui con- ti-|
 F,2 (FE DCB,A, | B,3 A,G,F, G,2) | F,2 F2 F2 F2 | G4 (A3 G | F2 E2 D4- | D4) C4 | z2 F,2 F,2 F,2 | %24
w: net mun- * * * * *||dum, qui con- ti-|net mun- *||* dum,|qui con- ti-|
 G,4 (A,3 B, | C4 B,2 G,2 | B,4 C4) | F,2 F4 E2 | F3 F E2 D2 | C4 D3 D | C2 B,2 A,4 | z8 | %32
w: net mun- *|||dum, Ja- cet|in prae- se- pi-|o, in prae-|se- pi- o,||
 z2 D4 ^C2 | D3 D C2 B,2 | A,4 B,2 A, x | B,2 C2 F,2 F2- | F2 F2 B,2 F2 | (G4 F4) | B,2 F4 F2 | %39
w: ja- cet|in prae- se- pi-|o, in prae-|se- pi- o, et|_ in coe- lis|re- *|gnat, et in|
 B,2 F2 B,4 ||[M:3/2] F,8 F4 | B,4 (B,2 C2 D2 E2 | F4) F,4 G,4 | A,4 B,4 C4 | F,8 z4 | z12 | %46
w: coe- lis re-|gnat. Al-|le- lu- * * *|* ja, al-|le- * lu-|ja,||
 z4 F,4 G,4 | (A,4 B,4 C4) | F,8 F4 | B,4 (B,2 C2 D2 E2) | F8 C4 | (D4 B,4) C4 || %52
w: al- le-|lu- * *|ja, al-|le- lu- * * *|ja, al-|le- * lu-|
[M:2/2] F,2 F3 (EFD | E2 F2) D4 | C4 z2 D2- | D (CDB, C2 D2) | C4 F,2 F2- | F2 (F2 _E2 D2) | %58
w: ja. al- le- * *|* * lu-|ja, al-|* le- * * * *|lu- ja, al-|* le- * *|
 C4 F,2 F2- | F2 (E2 F2 D2) | (C4 F,4) | !fermata!C8 || z8 | z8 | z2 C2 D2 E2 | (F3 E D2 C2 | %66
w: lu- ja, al-|* le- * *|lu- *|ja.|||Na- tus est|no- * * *|
 D4) C2 F2- | FF F2 B,3 B, | B,4 (C4 | D4) C4- | C4 F,2 F2 | F4 E2 C2 | D6 D2 | C4 z2 B,2 | %74
w: * bis ho-|* di- e ho- di-|e Sal-|* va-|* tor qui|est Chri- stus|Do- mi-|nus, qui|
 B,4 A,2 F,2 | (A,3 B, C4- | C2 B,A, G,A,B,C | D2) D2 C4 | z2 C2 D2 E2 | F6 E2 | (D4 C4 | B,4 C4) | %82
w: est Chri- stus|Do- * *||* mi- nus,|in ci- vi-|ta- te|Da- *||
 F,2 A,2 B,2 C2 | D4 C4 | (B,2 A,2 D4) | C4 (B,4- | B,4 C4- | C4) F,2 F2- | F2 E2 F3 F | E2 D2 C4 | %90
w: vid, in ci- vi-|ta- te|Da- * *|vid, Da-||* vid, Ja-|* cet in prae-|se- pi- o,|
 D3 D C2 B,2 | A,4 z4 | z4 z2 D2- | D2 ^C2 D3 D | C2 B,2 A,4 | B,3 A, B,2 C2 | F,2 F4 F2 | %97
w: in prae- se- pi-|o,|ja-|* cet in prae-|se- pi- o,|in prae- se- pi-|o, et in|
 B,2 F2 (G4 | F4) B,2 F2- | F2 F2 B,2 F2 | B,8 ||[M:3/2] F,8 F4 | B,4 (B,2 C2 D2 E2) | %103
w: coe- lis re-|* gnat, et|_ in coe- lis|re-|gnat. Al-|le- lu- * * *|
 F4 (F,4 G,4) | (A,4 B,4) C4 | F,8 z4 | z12 | z4 (F,4 G,4) x4 | (A,4 B,4) C4 | F,8 F4 | %110
w: ja, al- *|le- * lu-|ja,||al- *|le- * lu-|ja, al-|
 B,4 (B,2 C2 D2 E2) | F8 C4 | (D4 B,4) C4 ||[M:2/2] F,2 F3 (EFD | E2) F2 D4 | C4 z2 D2- | %116
w: le- lu- * * *|ja, al-|le- * lu-|ja. Al- le- * *|* lu- *|ja, al-|
 D (CDB, C2 D2) | C4 F,2 F2- | F2 (F2 _E2 D2) | C4 F,2 F2- | F2 (E2 F2 B,2) | C8 | F,2 B,4 A,2 | %123
w: * le- * * * *|lu- ja, al-|* le- * *|lu- ja, al-|* le- * *|lu-|ja, al- le-|
 B,8 | !fermata!F,8 |] %125
w: lu-|ja.|

